svgs/sharp-solid/citrus.svg

<svg xmlns="http://www.w3.org/2000/svg" viewBox="0 0 512 512"><!--! Font Awesome Pro 6.6.0 by @fontawesome - https://fontawesome.com License - https://fontawesome.com/license (Commercial License) Copyright 2024 Fonticons, Inc. --><path d="M288 112l0 16 16 0 80 0c53 0 96-43 96-96l0-16 0-16L464 0 384 0c-53 0-96 43-96 96l0 16zM256 96c0-23.1 6.1-44.7 16.8-63.4c-5.5-.4-11.1-.6-16.8-.6C123.5 32 16 139.5 16 272s107.5 240 240 240s240-107.5 240-240c0-49.5-15-95.5-40.7-133.7C435 152 410.4 160 384 160l-80 0-16 0-32 0 0-32 0-16 0-16z"/></svg>

<svg xmlns="http://www.w3.org/2000/svg" viewBox="0 0 512 512"><!--! Font Awesome Pro 6.4.0 by @fontawesome - https://fontawesome.com License - https://fontawesome.com/license (Commercial License) Copyright 2023 Fonticons, Inc. --><path d="M288 112v16h16 80c53 0 96-43 96-96V16 0H464 384c-53 0-96 43-96 96v16zM256 96c0-23.1 6.1-44.7 16.8-63.4c-5.5-.4-11.1-.6-16.8-.6C123.5 32 16 139.5 16 272s107.5 240 240 240s240-107.5 240-240c0-49.5-15-95.5-40.7-133.7C435 152 410.4 160 384 160H304 288 256V128 112 96z"/></svg>
